src/assets/icons/actions/mail.svg

<?xml version="1.0" encoding="UTF-8"?>
<svg width="24px" height="24px" viewBox="0 0 24 24" version="1.1" xmlns="http://www.w3.org/2000/svg" xmlns:xlink="http://www.w3.org/1999/xlink">
    <title>icon/action-vignette-mail</title>
    <g id="icon/action-vignette-mail" stroke="none" stroke-width="1" fill="none" fill-rule="evenodd">
        <path d="M18.000064,5 C18.7980629,5 19.5600806,5.31799379 20.1239907,5.87600934 C20.681987,6.44001536 21,7.20201389 21,7.999936 L21,15.2000128 C21,15.9980117 20.6820062,16.7600294 20.1239907,17.3239395 C19.5599846,17.8819358 18.7979861,18.1999488 18.000064,18.1999488 L5.999936,18.1999488 C5.20193709,18.1999488 4.43991936,17.881955 3.87600934,17.3239395 C3.31801299,16.7599334 3,15.9979349 3,15.2000128 L3,7.999936 C3,7.20193709 3.31799379,6.43991936 3.87600934,5.87600934 C4.44001536,5.31801299 5.20201389,5 5.999936,5 L18.000064,5 Z M19.8,8.969 L13.3440911,12.2001536 L13.3260909,12.2061537 L13.3260909,12.2061537 C12.9120961,12.3981557 12.4560913,12.4941567 12.0000864,12.4881663 C11.5440815,12.4941663 11.0880767,12.3981653 10.6740819,12.2061537 L10.6560817,12.2001536 L10.6560817,12.2001536 L4.199,8.969 L4.1999168,15.2001088 C4.1999168,15.62678 4.35162212,16.0344881 4.62132047,16.3558084 L4.72792243,16.4721224 C5.06392602,16.808126 5.51993088,17.000128 5.999936,17.000128 L5.999936,17.000128 L18.000064,17.000128 C18.4800691,17.000128 18.936074,16.808126 19.2720776,16.4721224 C19.6080812,16.1361188 19.8000832,15.6801139 19.8000832,15.2001088 L19.8000832,15.2001088 L19.8,8.969 Z M18.000064,6.2000128 L5.999936,6.2000128 C5.51993088,6.2000128 5.06392602,6.39201485 4.72792243,6.72801843 C4.47537072,6.98057015 4.3041732,7.30091702 4.23471273,7.64829334 L11.1901181,11.1200653 C11.4421208,11.2400666 11.7181237,11.2940671 12.0001363,11.2880671 C12.2821489,11.2940671 12.5581327,11.2400666 12.8101546,11.1200653 L19.7654883,7.6493003 C19.6961575,7.30153611 19.5248733,6.98081416 19.2720776,6.72801843 C18.936074,6.39201485 18.4800691,6.2000128 18.000064,6.2000128 L18.000064,6.2000128 Z" id="Combined-Shape" stroke="#255033" stroke-width="0.25" fill="#255033"></path>
    </g>
</svg>

<?xml version="1.0" encoding="utf-8"?>
<!-- Generator: Adobe Illustrator 25.0.0, SVG Export Plug-In . SVG Version: 6.00 Build 0)  -->
<svg version="1.1" id="Calque_1" xmlns="http://www.w3.org/2000/svg" xmlns:xlink="http://www.w3.org/1999/xlink" x="0px" y="0px"
	 viewBox="0 0 24 24" style="enable-background:new 0 0 24 24;" xml:space="preserve">
<style type="text/css">
	.st0{fill-rule:evenodd;clip-rule:evenodd;fill:#062172;stroke:#062172;stroke-width:0.25;}
</style>
<g id="icon_x2F_action-vignette-mail">
	<path id="Combined-Shape" class="st0" d="M18,5c0.8,0,1.6,0.3,2.1,0.9C20.7,6.4,21,7.2,21,8v7.2c0,0.8-0.3,1.6-0.9,2.1
		c-0.6,0.6-1.3,0.9-2.1,0.9H6c-0.8,0-1.6-0.3-2.1-0.9C3.3,16.8,3,16,3,15.2V8c0-0.8,0.3-1.6,0.9-2.1C4.4,5.3,5.2,5,6,5H18z M19.8,9
		l-6.5,3.2l0,0l0,0c-0.4,0.2-0.9,0.3-1.3,0.3c-0.5,0-0.9-0.1-1.3-0.3l0,0l0,0L4.2,9l0,6.2c0,0.4,0.2,0.8,0.4,1.2l0.1,0.1
		C5.1,16.8,5.5,17,6,17l0,0h12c0.5,0,0.9-0.2,1.3-0.5s0.5-0.8,0.5-1.3l0,0L19.8,9z M18,6.2H6c-0.5,0-0.9,0.2-1.3,0.5
		C4.5,7,4.3,7.3,4.2,7.6l7,3.5c0.3,0.1,0.5,0.2,0.8,0.2c0.3,0,0.6,0,0.8-0.2l7-3.5c-0.1-0.3-0.2-0.7-0.5-0.9
		C18.9,6.4,18.5,6.2,18,6.2L18,6.2z"/>
</g>
</svg>
